X:174
%%pagewidth 10.5in
%%vocalfont Baskerville10Pro 15
T:New mad Tom of Bedlam, or Mad Tom (Part 2)
M:C
L:1/8
K:A
%%score 1 2
V:1 clef-treble
V:2 clef-bass octave=-1
[V:1]C3C [A,D]3D|[G,E][A,F][B,G][A,F] [G,E]2[A,E]2|[A,F][DG][EA][FB] [EAc]2 B>A &x6[DG]2|[CA]2[CA]2[CA]4:||
w:Tom is come to view the world a-gain, To see if he can ease his dis-temp-er'd brain.
w:to doth laugh, and Pros-er-pine is glad To see poor nak-ed Tom of* Bed-lam mad.
[V:2][A,A]4[F,F]4|[E,E]6[C,C]2|[D,D][B,,B,][C,C][D,D] [E,E]2[E,E]2|[A,A]2[A,EA]2[A,EA]4:||
[V:1][CA]Bcd e2e2|d2c2 B2[E^Gc]2|[CA]2[CEA]2 [E^G]2[^D^F]2 &x4B,4|[1 [B,E^G]2[^G,E]2z4:||[2 [B,E^G]2[^GE]2z2zE||
w:Through the woods I wand-er night and day, To find my stragg-ling sens-es,|**When
w:In an an-gry mood I met old Time With~a whip for my of*|fences;**
[V:2][A,,A,]2z2 [K:clef=treble] cde^f &x6c2|[B^g]2[Aa]2 [eg]2 [K:clef=bass] C2|A2A,2 B,4|E,4z4:||E,4z4||
[V:1][B,^G]2E2 B3B &x4E2x2|[Ec]2A2 [Ae]3[Ae]|[Bd]2[ce]2d3c &x4c2Bc|[1 c2[Ec]2 z2zE &c2x6:||c2[Ec]2z4 &c2x6||:!>(![Cc]4 [EB]2!>)![CA]2|
w:he me spies, a-way he flies, For Time will stay for no man; With||Cold* and
w:hideous cries I rend the skies, How pi-ty is not ||common.|Help,* oh
[V:2]E4^G4|A4c3d|g2c2g2G2|c2c2z4:||c4c4||:A,4G,2F,2|
[V:1]^G6G2 &E8|!>(![Ee]4 ([^Gd]2[Ec]2)|[1 !>)![^GB]8:||[2 [^GB]6E2||[EAc]2c2 c2[CA]2|[EBe]2e2e2[EAc]2|([Ad]e)[Adf]2 e3d &x4[GB]2x2|
w:com-fort-less I* lie,|*Now hark! I hear A-*pollo's team, The car-*man 'gins to
w:help! or else I ||die.|Chaste Di-a-na bends her bow, The boar* be-gins to
[V:2]E,8|(C4B,2A,2|E,8):||E,8||A,6A2|G6A2|F2D2E2E,2|
[V:1][1 [Ac]2[EAc]2z4:||[2 [Ac]2[EAc]2z2A2||[M:6/4]A3Bc2 c3de2 &E2x4E2x4|E6E4E2|E3FG2 G3AB2|
w:whistle;|**Come, Vul-can, with tools and with tac-kles, And knock off my trouble-*some
[V:2]A,2A,2z4:||A,2A,2z4||[M:6/4][Ac]6A6|[GB]12|[EGB]6[EB]6|
[V:1]D6D4D2|(D3E)F2 F3GA2 &x6D2x4|E6 [EBe]6|c3dc2 [DGB]4A2 &[EA]2x4x6|[CA]12||
w:shack-les, Bid Charles* make rea-dy his wain, To fetch my five senses a-gain.
[V:2][B,FB]12|[DFA]6 [DA]6|[CA]6 [G,E]6|[A,E]4C2 E6|A12||

